public/img/happy-clients.svg

<svg width="48" height="48" viewBox="0 0 48 48" fill="none" xmlns="http://www.w3.org/2000/svg">
<rect width="48" height="48" rx="4" fill="#F4F6FC"/>
<path d="M34.5 24C34.5 20.25 32.4844 16.8281 29.25 14.9531C25.9688 13.0312 21.9844 13.0312 18.75 14.9531C15.4688 16.8281 13.5 20.25 13.5 24C13.5 27.7969 15.4688 31.2188 18.75 33.0938C21.9844 35.0156 25.9688 35.0156 29.25 33.0938C32.4844 31.2188 34.5 27.7969 34.5 24ZM12 24C12 19.7344 14.25 15.7969 18 13.6406C21.7031 11.4844 26.25 11.4844 30 13.6406C33.7031 15.7969 36 19.7344 36 24C36 28.3125 33.7031 32.25 30 34.4062C26.25 36.5625 21.7031 36.5625 18 34.4062C14.25 32.25 12 28.3125 12 24ZM19.6875 27.2812C20.5312 28.2656 21.9375 29.25 24 29.25C26.0156 29.25 27.4688 28.2656 28.2656 27.2812C28.5469 26.9531 29.0156 26.9531 29.3438 27.1875C29.6719 27.4688 29.6719 27.9375 29.4375 28.2656C28.3594 29.4844 26.5781 30.75 24 30.75C21.375 30.75 19.5938 29.4844 18.5156 28.2656C18.2812 27.9375 18.2812 27.4688 18.6094 27.1875C18.9375 26.9531 19.4062 26.9531 19.6875 27.2812ZM19.125 21.75C19.125 21.1406 19.6406 20.625 20.25 20.625C20.8594 20.625 21.375 21.1406 21.375 21.75C21.375 22.4062 20.8594 22.875 20.25 22.875C19.6406 22.875 19.125 22.4062 19.125 21.75ZM27.75 20.625C28.3594 20.625 28.875 21.1406 28.875 21.75C28.875 22.4062 28.3594 22.875 27.75 22.875C27.1406 22.875 26.625 22.4062 26.625 21.75C26.625 21.1406 27.1406 20.625 27.75 20.625Z" fill="#1A75BB"/>
</svg>

<svg xmlns="http://www.w3.org/2000/svg" width="48" height="48" fill="none"><rect width="48" height="48" fill="#F4F6FC" rx="4"/><path fill="#1A75BB" d="M34.5 24c0-3.75-2.016-7.172-5.25-9.047-3.281-1.922-7.266-1.922-10.5 0A10.36 10.36 0 0 0 13.5 24c0 3.797 1.969 7.219 5.25 9.094 3.234 1.922 7.219 1.922 10.5 0A10.48 10.48 0 0 0 34.5 24M12 24a11.91 11.91 0 0 1 6-10.36c3.703-2.156 8.25-2.156 12 0 3.703 2.157 6 6.094 6 10.36 0 4.313-2.297 8.25-6 10.406-3.75 2.157-8.297 2.157-12 0-3.75-2.156-6-6.093-6-10.406m7.688 3.281c.843.985 2.25 1.969 4.312 1.969 2.016 0 3.469-.984 4.266-1.969.28-.328.75-.328 1.078-.093.328.28.328.75.093 1.078C28.36 29.484 26.579 30.75 24 30.75c-2.625 0-4.406-1.266-5.484-2.484-.235-.328-.235-.797.093-1.078.328-.235.797-.235 1.078.093m-.563-5.531c0-.61.516-1.125 1.125-1.125.61 0 1.125.516 1.125 1.125a1.11 1.11 0 0 1-1.125 1.125 1.11 1.11 0 0 1-1.125-1.125m8.625-1.125c.61 0 1.125.516 1.125 1.125a1.11 1.11 0 0 1-1.125 1.125 1.11 1.11 0 0 1-1.125-1.125c0-.61.516-1.125 1.125-1.125"/></svg>
